X: 1
T: Serenata Rimpianto
T: Regret Serenade
C: Enrico Toselli
S: Helene Criscio, Tony Santorella "Italian Favorites for Accordion" 1997
Z: 2017 John Chambers <jc:trillian.mit.edu>
M: 3/4
L: 1/8
K: C
%%continueall 1
% - - - - - - - - - -
[| "C"c3 G AE | G4 C2 | C2 E2 B2 |
w: Co-me~un so-gno d'or scol-pi-to nel
%
"G7"A4G2 | d3 e fc | B3 c dA |
w: co-re Il ri-cor-do~un cor di quel-la-
%
GA BG DE | "C"C6- | C2 z2 z2 |
w: mor che non e-si-ste piu._
%
"C"c3 G AE | G4 C2 | C2 E2 B2 |
w: Fu la sua vi-sion quel dol-ce sor-
% - - - - - - - - - -
"G7"A4 G2 | d3 e fc | B3 c dA |
w: ri-so che piu lie-ta fa col suo bril-
%
GA BG DE | "C"C6- | C2 z2 z2 | CD E3 G |
w: lor la no-stra gio-ven-tu.* Ma fu mol-to
%
"G7"GD D4 | DE F3 A | "C"AE E3 C |
w: bre-ve~un me la dol-cez-za  Di quel ben sva-
%
"F"c4 BA | "C"GE CD EG | "Em"E4- DD | "C"G6 |
w: ni quel bel so-go d'or la scian-do~in me  Il do-lor!
%
"F"A3 c dc | "C"e6- | ec BA GC |
w: cu-poi l'av-ve nir* sem-pre piu tri-sti
% - - - - - - - - - -
"Dm"F4 "G7"DE/F/ | "C"G3 A (3(Bdc) | "Am"E3 F "Em"(3(GBA) |
w: di la gio-ven tu pas-sa-ta sa-ra  rim-pian-to mi
%
"Dm"AD D4 | "C7"E3 G F/E/D/C/ | "G7"D4- DC |
w: re-sta sol ci  rim-pian-to~a ma-ro'e duol_ nel
%
"C"C2 z2 z2 | z2 z2 C2 | C2 E2 B2 | "G7"A4 G2 |
w: cor! di ra-gio di so-le
%
z6 | z4 zc dA | GA BG dHe |
w: sul mio cam-mi-no alui me non bril~la
%
"C"c4 A2 | c4 "G7"d2 | "C"e6- | ez z2 z2 |]
w: piu-mai piu-mai piu._
% - - - - - - - - - -
